X: 726
T: Mollie McCarthy
C: anon.
O: Ireland
B: Francis O'Neill: "The Dance Music of Ireland" (1907) no. 726
R: Reel
Z: Transcribed by Frank Nordberg - http://www.musicaviva.com
F: http://www.musicaviva.com/abc/tunes/ireland/oneill-1001/oneill-1001-072
6.abc
M: C|
L: 1/8
K: D
DAFA DAFA|DAFA (GE)E2|DAFA DAFA|dBAG (FD)D2:|afdf gfed|gefd (Be)e2|
afdf gfed|(fa)eg (fd)d2|afdf gfed|gefd Bee2|af({a}g)e fdec|dBAG FDD2|]
W:
W:
W: From Musica Viva - http://www.musicaviva.com
W: the Internet center for free sheet music downloads.


